img/speaker-coming-soon-top.svg

<svg xmlns="http://www.w3.org/2000/svg" viewBox="-480.7 -456.3 400 406"><path fill="#FFF" d="M-480.7-456.3v406h400v-406h-400zm19.4 84.9c0-3.5 2.8-6.2 6.2-6.2s6.2 2.7 6.2 6.2-2.8 6.2-6.2 6.2c-3.4.1-6.2-2.7-6.2-6.2zm14.5 203.7c-3.5 0-6.2-2.7-6.2-6.2s2.8-6.2 6.2-6.2 6.2 2.7 6.2 6.2-2.7 6.2-6.2 6.2zm39.7 71.3c-3.2-1.2-5.9-1.4-8-.4-2.1 1-3.6 3.1-4.8 6.4-1.1 3.6-3 6.1-5.4 7.2s-5.5 1-9-.4l.5-1.4c3.2 1.2 5.9 1.4 8 .4s3.6-3.1 4.8-6.4c2.4-7.2 7.4-9.6 14.5-6.9l-.6 1.5zm9.8-186.8l-1.4-.2c.7-3.4.4-6-.9-7.9-1.4-1.9-3.8-3.1-7.1-3.6-3.8-.5-6.5-2-8-4.1-1.5-2.2-1.9-5.2-1.1-9l1.4.2c-.7 3.4-.4 6 .9 7.9 1.4 1.9 3.8 3.1 7.1 3.6 7.5 1.1 10.7 5.6 9.1 13.1zm27.7-156.8c-3.5 0-6.2-2.7-6.2-6.2s2.7-6.2 6.2-6.2 6.2 2.7 6.2 6.2-2.8 6.2-6.2 6.2zm58.7 218.8c-3.5 0-6.2-2.7-6.2-6.2s2.7-6.2 6.2-6.2 6.2 2.7 6.2 6.2-2.7 6.2-6.2 6.2zm7.2-175.8c-3.1-1.4-5.9-1.5-7.9-.6-2.1.9-3.8 3-4.9 6.2-1.2 3.6-3.1 6-5.6 7.1s-5.5.9-9-.6l.5-1.2c3.1 1.4 5.9 1.5 7.9.6 2.1-.9 3.8-3 4.9-6.2 2.6-7.2 7.6-9.5 14.8-6.5l-.7 1.2zm34.9 311.6c-1.6 3-5.5 4.1-8.5 2.5s-4.1-5.5-2.5-8.5 5.5-4.1 8.5-2.5c3 1.7 4.1 5.4 2.5 8.5zm31.1-240.6c0-3.5 2.8-6.2 6.2-6.2s6.2 2.7 6.2 6.2-2.8 6.2-6.2 6.2c-3.4.1-6.2-2.7-6.2-6.2zm32 135.7c-2.3-2.6-4.6-3.9-6.9-4-2.3-.1-4.8 1.1-7.1 3.5-5.5 5.4-11 5.2-16-.6l1-.9c2.2 2.6 4.6 3.9 6.9 4 2.2.1 4.8-1.1 7.1-3.5 2.7-2.7 5.5-4 8.1-3.9 2.7.1 5.4 1.6 7.9 4.5l-1 .9zm11.5-238.2l-1.4-.1c.4-3.4-.2-6-1.6-7.7-1.5-1.7-4-2.7-7.4-2.9-3.9-.1-6.6-1.4-8.4-3.4-1.7-2-2.4-5-2-8.9l1.4.1c-.4 3.4.2 6 1.6 7.7 1.5 1.7 4 2.7 7.4 2.9 7.7.4 11.3 4.7 10.4 12.3zm48.6 118l-1-1c2.4-2.5 3.5-4.9 3.4-7.1-.1-2.2-1.5-4.6-4.1-6.7-5.9-5-6.1-10.5-.8-16l1 1c-2.4 2.5-3.5 4.9-3.4 7.1.1 2.2 1.5 4.6 4.1 6.7 2.9 2.5 4.5 5.1 4.6 7.7.1 2.8-1.1 5.6-3.8 8.3zm14.3 219.6c-.3 2.6-1.9 5.2-5 7.6l-.9-1.1c2.8-2.1 4.2-4.4 4.4-6.6.3-2.2-.9-4.7-3.1-7.4-5-5.7-4.5-11.2 1.5-16l.9 1.1c-2.8 2.1-4.2 4.4-4.4 6.6-.3 2.2.9 4.7 3.1 7.4 2.6 2.9 3.7 5.7 3.5 8.4zm8.6-324.4c-3.1-1.6-4.2-5.4-2.6-8.5s5.4-4.2 8.5-2.6 4.2 5.4 2.6 8.5c-1.6 3-5.4 4.2-8.5 2.6zm14.8 207c-1.6 3.1-5.4 4.2-8.5 2.6-3.1-1.6-4.2-5.4-2.6-8.5 1.6-3.1 5.4-4.2 8.5-2.6 3.1 1.6 4.2 5.4 2.6 8.5z"/></svg>

<?xml version="1.0" encoding="utf-8"?>
<!-- Generator: Adobe Illustrator 18.1.1, SVG Export Plug-In . SVG Version: 6.00 Build 0)  -->
<svg version="1.1" id="Layer_1" xmlns="http://www.w3.org/2000/svg" xmlns:xlink="http://www.w3.org/1999/xlink" x="0px" y="0px"
	 viewBox="-480.7 -456.3 400 406" enable-background="new -480.7 -456.3 400 406" xml:space="preserve">
<path fill="#FFFFFF" d="M-480.7-456.3v406h400v-406H-480.7z M-461.3-371.4c0-3.5,2.8-6.2,6.2-6.2s6.2,2.7,6.2,6.2s-2.8,6.2-6.2,6.2
	C-458.5-365.1-461.3-367.9-461.3-371.4z M-446.8-167.7c-3.5,0-6.2-2.7-6.2-6.2s2.8-6.2,6.2-6.2s6.2,2.7,6.2,6.2
	C-440.6-170.4-443.3-167.7-446.8-167.7z M-407.1-96.4c-3.2-1.2-5.9-1.4-8-0.4c-2.1,1-3.6,3.1-4.8,6.4c-1.1,3.6-3,6.1-5.4,7.2
	s-5.5,1-9-0.4l0.5-1.4c3.2,1.2,5.9,1.4,8,0.4s3.6-3.1,4.8-6.4c2.4-7.2,7.4-9.6,14.5-6.9L-407.1-96.4z M-397.3-283.2l-1.4-0.2
	c0.7-3.4,0.4-6-0.9-7.9c-1.4-1.9-3.8-3.1-7.1-3.6c-3.8-0.5-6.5-2-8-4.1c-1.5-2.2-1.9-5.2-1.1-9l1.4,0.2c-0.7,3.4-0.4,6,0.9,7.9
	c1.4,1.9,3.8,3.1,7.1,3.6C-398.9-295.2-395.7-290.7-397.3-283.2z M-369.6-440c-3.5,0-6.2-2.7-6.2-6.2s2.7-6.2,6.2-6.2
	s6.2,2.7,6.2,6.2S-366.2-440-369.6-440z M-310.9-221.2c-3.5,0-6.2-2.7-6.2-6.2s2.7-6.2,6.2-6.2s6.2,2.7,6.2,6.2
	S-307.4-221.2-310.9-221.2z M-303.7-397c-3.1-1.4-5.9-1.5-7.9-0.6c-2.1,0.9-3.8,3-4.9,6.2c-1.2,3.6-3.1,6-5.6,7.1s-5.5,0.9-9-0.6
	l0.5-1.2c3.1,1.4,5.9,1.5,7.9,0.6c2.1-0.9,3.8-3,4.9-6.2c2.6-7.2,7.6-9.5,14.8-6.5L-303.7-397z M-268.8-85.4c-1.6,3-5.5,4.1-8.5,2.5
	s-4.1-5.5-2.5-8.5s5.5-4.1,8.5-2.5C-268.3-92.2-267.2-88.5-268.8-85.4z M-237.7-326c0-3.5,2.8-6.2,6.2-6.2s6.2,2.7,6.2,6.2
	s-2.8,6.2-6.2,6.2C-234.9-319.7-237.7-322.5-237.7-326z M-205.7-190.3c-2.3-2.6-4.6-3.9-6.9-4c-2.3-0.1-4.8,1.1-7.1,3.5
	c-5.5,5.4-11,5.2-16-0.6l1-0.9c2.2,2.6,4.6,3.9,6.9,4c2.2,0.1,4.8-1.1,7.1-3.5c2.7-2.7,5.5-4,8.1-3.9c2.7,0.1,5.4,1.6,7.9,4.5
	L-205.7-190.3z M-194.2-428.5l-1.4-0.1c0.4-3.4-0.2-6-1.6-7.7c-1.5-1.7-4-2.7-7.4-2.9c-3.9-0.1-6.6-1.4-8.4-3.4c-1.7-2-2.4-5-2-8.9
	l1.4,0.1c-0.4,3.4,0.2,6,1.6,7.7c1.5,1.7,4,2.7,7.4,2.9C-196.9-440.4-193.3-436.1-194.2-428.5z M-145.6-310.5l-1-1
	c2.4-2.5,3.5-4.9,3.4-7.1c-0.1-2.2-1.5-4.6-4.1-6.7c-5.9-5-6.1-10.5-0.8-16l1,1c-2.4,2.5-3.5,4.9-3.4,7.1c0.1,2.2,1.5,4.6,4.1,6.7
	c2.9,2.5,4.5,5.1,4.6,7.7C-141.7-316-142.9-313.2-145.6-310.5z M-131.3-90.9c-0.3,2.6-1.9,5.2-5,7.6l-0.9-1.1
	c2.8-2.1,4.2-4.4,4.4-6.6c0.3-2.2-0.9-4.7-3.1-7.4c-5-5.7-4.5-11.2,1.5-16l0.9,1.1c-2.8,2.1-4.2,4.4-4.4,6.6
	c-0.3,2.2,0.9,4.7,3.1,7.4C-132.2-96.4-131.1-93.6-131.3-90.9z M-122.7-415.3c-3.1-1.6-4.2-5.4-2.6-8.5s5.4-4.2,8.5-2.6
	s4.2,5.4,2.6,8.5C-115.8-414.9-119.6-413.7-122.7-415.3z M-107.9-208.3c-1.6,3.1-5.4,4.2-8.5,2.6c-3.1-1.6-4.2-5.4-2.6-8.5
	c1.6-3.1,5.4-4.2,8.5-2.6C-107.4-215.2-106.3-211.4-107.9-208.3z"/>
</svg>
